X:38
T:Cuckoo's Nest, The
T:Jackie Tar
T:Jacky Tar
R:hornpipe
H:See also #119
Z:id:hn-hornpipe-38
M:C|
K:Em
|: GA | Beed efge | dBBA ~B3d | ABde faef | d2A2 A2GA |
Beed efge | dBGB d2cB | AGFE DEFA | GEED E2 :|
|: GA | BGEG BGEG | BAGF E2FG | AFDF AFDF | AGFE D2EF |
~G3E g2fe | dBGB d2cB | AGFE DEFA | GEED E2 :|
P:variations
|: Bd | e2ed effe | d2B2 B2dB | ABde (3fga ef | fedB A2 (3Bcd |
edef g2fe | dBGB d2cB | AGFE DEFA | GEED E2 :|
|: GA | BGEG BGEG | BAGF E2FG | AFDF AFDF | AGFE DEFD |
GFGE g2fe | dBGB d2cB | AGFE DEFA | G2E2 E2 :|
<end>
<start>
